X: 8149
T: Cook In The Kitchen, The
R: jig
M: 6/8
K: Dmajor
|:B|Add ded|=cAB c2B|Add dcd|eaa gec|
Add ded|=cAB c2a|ged cde|fdc d2:|
|:e|fgf fed|efe age|ded dcd|eaa ged|
fgf fed|efe efa|ged cde|fdc [1 d2:|2 dc||
|:B|A2B c2d|efd cBA|ged cde|efa gec|
A2B c2d|efd cBA|ged cde|fdc [1 dc:|2 d2||

